X:1
T:Title
%%score { ( 1 4 ) | ( 2 3 ) }
L:1/8
Q:1/4=108
M:4/4
K:Eb
V:1 treble nm="Grand Piano"
V:4 treble 
V:2 bass 
V:3 bass 
V:1
 E3 F G2 FE | G2 [GB]2 [Ac]2 [GB]2 | [Ge]3 [Ac] [GB]2 G2 | F6 z2 | E3 F G2 FE | %5
w: J.~H.~Rosecrans * * * *|||||
 G2 [GB]2 [Ac]2 [GB]2 | [Ge]3 [EAc] [EGB][EG] [A,DF]2 |[M:3/4] [G,E]6 |[M:1/4] B>B |[M:4/4] e6 z2 | %10
w: |||||
 [GB]2 [EG]4 z2 | [GB]>[EG] [GB]>[EA] [DF]3 [EG] |[M:3/4] [FA]6 |[M:1/4] B>B |[M:4/4] e6 z2 | %15
w: |||||
 [Ec]2 [Ec]4 [EAc]2 | z4 z2 d2 | [Ge]6 z2 |] %18
w: |||
V:2
 [E,G,]3 [E,A,E] [E,B,E]2 [A,E]G, | [E,B,E]2 [E,E]2 [E,E]2 [E,E]2 | [E,B,]3 [E,E] [E,E]2 [G,B,E]2 | %3
 [B,D]6 z2 | [E,G,]3 [E,A,E] [E,B,E]2 [A,E]G, | [E,B,E]2 [E,E]2 [E,E]2 [E,E]2 | %6
 [E,B,]3 E, z B, B,,2 |[M:3/4] E,6 |[M:1/4] B,>B, | %9
[M:4/4] [E,B,]2 [E,B,]>[E,B,] [E,B,]>[E,B,] [E,B,]>[E,E] | [E,E]2 [E,B,]4 z2 | %11
 [E,E]>[E,B,] [E,E]>[E,B,] [B,,B,]2 [B,,B,][B,,B,] |[M:3/4] [B,,B,]6 |[M:1/4] B,>B, | %14
[M:4/4] [E,B,]2 [E,B,]>[E,B,] [E,B,]>[_D,B,] [C,A,]>[B,,G,] | [A,,A,]2 [A,,A,]4 A,,2 | %16
 B,,2 [B,,B,]2 [B,,B,]2 [B,,B,]2 | [E,B,]6 z2 |] %18
V:3
 z4 z2 E,2 | x8 | x8 | x8 | z4 z2 E,2 | x8 | z4 E,2 z2 |[M:3/4] x6 |[M:1/4] x2 |[M:4/4] x8 | x8 | %11
 x8 |[M:3/4] x6 |[M:1/4] x2 |[M:4/4] x8 | x8 | x8 | x8 |] %18
V:4
 x8 | x8 | x8 | x8 | x8 | x8 | x8 |[M:3/4] x6 |[M:1/4] x2 |[M:4/4] G2 G>G G>[Ge] [Bd]>[Ac] | x8 | %11
 x8 |[M:3/4] x6 |[M:1/4] x2 |[M:4/4] G2 G>G G>[EG] [EA]>[EB] | x8 | [EGB]2 [Ge]2 [Fd]2 FA | x8 |] %18

